X:39
T:The Miller o' Dervil
T: (also Bob Steele, Auld Brig o' Ayr, New Brig o' Dee)
C: Tom Barnett
R: strathspey
M:C
L:1/8
Z: Jason R. Fruit <jason@gmail.com>
K:D
"^Popular Strathspey"A, | [DD]<D F>A d>c d<f | [DD]<D F>D E>B,B,>E | D<D F>A d>cd>A | (3.B.c.d (3 .A.B.G F<D [DA,] :|
A | "_long bow 2 bows to the bar."(d>ef>).g (a>ba)>.d | (=c>de>).f (g>ag)>.e & "<("">)"E>x x6 | (d>ef)>.g (a>ba)>.f | (3.g.f.e (3.b.a.g f<d[dF]>g |
(3"_Dancing bow".f.d.f (3.a.f.d (3.g.f.g (3.e.f.g | (3.f.d.f (3.e.c.e (3.d.c.B (3.A.B.=c | (3.B.G.B (3.d.c.B (3.A.f.e (3.d.c.B & x4 (3.A.F.A x2 | (3ABA (3GFE F<D [DA,]|

